Suru++-Ubuntu/apps/symbolic/peruse-symbolic.svg

<svg width="16" height="16" version="1.1" xmlns="http://www.w3.org/2000/svg">
 <path d="m3.3985596 0.5c-1.6057533 0-2.8985596 1.2605621-2.8985596 2.8253174v9.3493646c0 1.564756 1.2928063 2.825318 2.8985596 2.825318h9.2028804c1.605754 0 2.89856-1.260562 2.89856-2.825318v-9.3493646c0-1.5647553-1.292806-2.8253174-2.89856-2.8253174zm1.0803222 0.9375h5.324707l-5.2276611 13.125h-0.0970459c-1.6845696 0-3.0413818-1.377538-3.0413818-3.088989v-6.9470217c0-1.7114512 1.3568122-3.0889893 3.0413818-3.0889893zm6.3336182 0h0.708618c1.68457 0 3.041382 1.3775381 3.041382 3.0889893v3.3178711l-6.2786865-0.0567627zm-2.814331 7.0697021-0.0018311 0.2160645 6.5661621 0.0585938v2.6916506c0 1.711451-1.356812 3.088989-3.041382 3.088989h-5.9344481z" style="fill:#808080"/>
</svg>

<svg xmlns="http://www.w3.org/2000/svg" width="16" height="16" version="1.1">
 <path style="fill:#808080" d="M 3.3985596,0.5 C 1.7928063,0.5 0.5,1.7605621 0.5,3.3253174 V 12.674682 C 0.5,14.239438 1.7928063,15.5 3.3985596,15.5 H 12.60144 C 14.207194,15.5 15.5,14.239438 15.5,12.674682 V 3.3253174 C 15.5,1.7605621 14.207194,0.5 12.60144,0.5 Z m 1.0803222,0.9375 h 5.324707 L 4.5759277,14.5625 H 4.4788818 C 2.7943122,14.5625 1.4375,13.184962 1.4375,11.473511 V 4.5264893 C 1.4375,2.8150381 2.7943122,1.4375 4.4788818,1.4375 Z m 6.3336182,0 h 0.708618 c 1.68457,0 3.041382,1.3775381 3.041382,3.0889893 V 7.8443604 L 8.2838135,7.7875977 Z M 7.998169,8.5072021 7.9963379,8.7232666 14.5625,8.7818604 v 2.6916506 c 0,1.711451 -1.356812,3.088989 -3.041382,3.088989 H 5.5866699 Z"/>
</svg>
